X:1
T:Singing of Jesus
T:John Robson Sweney
T:Singing of Jesus
T:Public Domain
T:Public Domain
C:John Robson Sweney
Z:Public Domain
%%score ( 1 2 ) ( 3 4 )
L:1/8
M:6/8
K:C
V:1 treble 
V:2 treble 
V:3 bass 
V:4 bass 
V:1
 [EG][CE][DF] [EG][Ec][Fd] | [Ec]3 [EG]3 | [FA][FA][FA] GG[Ec] | ([DB-]3 [FB]3) | %4
w: 1.~O I am sing- ing of|Je- sus,|Hap- py as mor- tal can|can *|
w: 2.~O I am sing- ing of|Je- sus,|Prais- ing Him all the day|ing *|
w: 3.~O I am sing- ing of|Je- sus,|Songs He de- light- eth to|ing, *|
 [Ec][GB][FA] [EG][CE]C | [CA]3 D3 | [CE][EG][Gc] [GB][FA][FB] | [Ec]3- [Ec]2 z | %8
w: I help but a- dore Him,|is so|cious to me: Hold- ing me|up *|
w: His in- fin- ite mer- cy,|ing His|ness in song. O I am|sing- *|
w: be- liev- ing, o- bey- ing,|ing till|shall ap- pear. Sing- ing, be-|lieving, *|
 [Fd][Ec][DB] [DB][Ec][Fd] | [Ge]3 [Ec]3 | [Fd][Ec][DB] [FA][EG][DF] | [CE]3- [CE]3 | %12
w: when I fal- ter, Giv- ing|me light|from His throne, Cheer- ing me|on *|
w: ing of Je- sus, Sing- ing|His won-|der- ful love; Sing- ing of|rest *|
w: o- beying, This is my con-|stant em-|ploy; He is my strength and|Re- *|
 [CE][CE][CE] [EA][EA][Ec] | [EB]3 E3 | %14
w: with His coun- sel, Keep- ing|my hand|
w: for the wea- ry, Rest in|His king-|
w: deem- er, He is my com-|fort and|
 [EA][EB][Ec] [^Fd][Fc]"^Use first four lines as chorus"[DF] | [DG-]3 [FG]3 |] %16
w: His own? * * * *||
w: a- bove. * * * *||
w: ||
V:2
 x6 | x6 | x3 GG x | x6 | x5 C | x3 D3 | x6 | x6 | x6 | x6 | x6 | x6 | x6 | x3 E3 | x6 | x6 |] %16
w: ||be; How||He|gra-||||||||in|||
w: ||long, Sing-||Tell-|good-||||||||dom|||
w: ||hear; Sing-||Wait-|He||||||||joy.|||
V:3
 [C,C][C,G,][C,G,] [C,C][C,G,][C,G,] | [C,G,]3 [C,C]3 | [F,C][F,C][F,C] [F,C][F,C][C,G,] | %3
 [G,,G,]3- [G,,G,]3 | [C,G,][C,C][C,C] [C,C][C,G,][E,G,] | F,3 [F,A,]3 | %6
 G,[G,C][G,E] [G,D][G,C][G,,G,] | [C,G,]3- [C,G,]2 z | %8
 [G,,G,][G,,G,][G,,G,] [G,,G,][G,,G,][G,,B,] | [C,C]3 [C,G,]3 | %10
 [G,,G,][G,,G,][G,,G,] [G,,G,][G,,G,][G,,G,] | [C,G,]3- [C,G,]3 | A,A,A, [A,C][A,C]A, | %13
 [E,^G,]3 [G,B,]3 | [A,C][A,C]A, [D,A,][D,A,][D,C] | [G,B,]3- [G,B,]3 |] %16
V:4
 x6 | x6 | x6 | x6 | x6 | F,3 x3 | G, x5 | x6 | x6 | x6 | x6 | x6 | A,A,A, x A, x | x6 | x2 A, x3 | %15
 x6 |] %16

